X: 21211
T: the Banks of spey
%R: air, strathspey
B: James Oswald "The Caledonian Pocket Companion" v.2 p.121 #1
Z: 2018 John Chambers <jc:trillian.mit.edu>
M: C
L: 1/16
K: D
"_Slow"D4 |\
F4 A4 d6 f2 | ec3 TB2A2 d6 B2 |\
(AF3) (dB3) (AF3) TE3D | E6 F2 E4 f3g |\
a2f2d2f2 g2e2A2g2 | f4 (gfed) Tc4 TB2A2 |\
B2c2 d2(3(efg) f2e2Td2c2 |
({c}d6 e2) d4 :: f3g |\
(f4 e2)d2 (c2e2)(a2c2) | (d2c2)(B2^A2) B6 F2 |\
B3c (defg) (f2e2)(d2c2) | B6 c2 B4 {Bc}d4 |\
(AF3) TE3D d6 B2 |
AF3 E2D2 d6B2 |\
(AF3) (dB3) (AF3) E3F | (D6 E2) D4 :: D3E |\
(FA3) A3B .d(ABc def)g | (af3) Te3d e4 (defe) |
(d3B)(d3B) (ABdB) (AFED) | {D}E6 F2 E4 D3E |\
(FA3) A3B (dABc) (defg) |
a2(gf) b(gfe) (d2c2)(TB2A2) | B4 (g3a/b/) a2(gf) (agfe) |\
(d6e2) d4 :: f3g |\
a6g2 f2(ag) (fe)(dc) | (d2c2)(TB2A2) (B2A2)(G2F2) |
G4 (B2g2) (f2e2)(d2c2) | B6 c2 B4 (d2B2) |\
(A2F2)(E2G2) F4 (d2B2) | (A2F2)(E2G2) F4 a2(gf) |\
b2c2 {e}d2cB (AF3) E3F | D6 E2 D4 :|
